**kern	**silbe	**harmony	**phrase	**leadinstrument	**rhyme	**timestamp	**harte
*ICvox	*	*M4/4	*	*	*	*	*M4/4
*VRlead	*	*	*	*	*	*	*
*Hstimme	*	*	*	*	*	*	*
*D:	*	*D:	*	*	*	*	*D:
*M4/4	*	*	*	*	*	*	*
*clefG2	*	*	*	*	*	*	*
r;	.	1r;	.	r	.	0	N.C.
=1	=1	=1	=1	=1	=1	=1	=1
*>Letter>A	*>Letter>A	*>Letter>A	*>Letter>A	*>Letter>A	*>Letter>A	*>Letter>A	*>Letter>A
*>Label>Intro	*>Label>Intro	*>Label>Intro	*>Label>Intro	*>Label>Intro	*>Label>Intro	*>Label>Intro	*>Label>Intro
1r	.	4N	newline	piano	.	0.836	N.C.
.	.	2.AM	.	piano	.	1.592	A:maj
=2	=2	=2	=2	=2	=2	=2	=2
1r	.	2DM	.	piano	.	3.86	D:maj/3
.	.	2FM	.	piano	.	5.373	F:maj6
=3	=3	=3	=3	=3	=3	=3	=3
1r	.	2Emm	.	piano	.	6.885	E:min7
.	.	2AM	.	piano	.	8.397	A:maj
=4	=4	=4	=4	=4	=4	=4	=4
1r	.	1AM	.	piano	.	9.91	A:maj
=5	=5	=5	=5	=5	=5	=5	=5
1r	.	1AM	.	piano	.	12.934	A:maj
=6	=6	=6	=6	=6	=6	=6	=6
*>Letter>B	*>Letter>B	*>Letter>B	*>Letter>B	*>Letter>B	*>Letter>B	*>Letter>B	*>Letter>B
*>Label>Verse	*>Label>Verse	*>Label>Verse	*>Label>Verse	*>Label>Verse	*>Label>Verse	*>Label>Verse	*>Label>Verse
*C:	*	*C:	*C:	*C:	*	*C:	*C:
4r	.	2B-M	newline	voice	.	15.959	B-:maj
16f	May-	.	.	.	.	.	.
16f	-be	.	.	.	.	.	.
16f	I'm	.	.	.	.	.	.
16d	a-	.	.	.	(a	.	.
8f	-mazed	2FM	.	voice	A)	17.508	F:maj/3
16f	at	.	.	.	.	.	.
16f	the	.	.	.	.	.	.
8g	way	.	.	.	.	.	.
8g	you	.	.	.	.	.	.
=7	=7	=7	=7	=7	=7	=7	=7
8g	love	2CM	.	voice	.	19.057	C:maj
16g	me	.	.	.	.	.	.
[16e	all	.	.	.	.	.	.
16e]	_	.	.	.	.	.	.
16e	the	.	.	.	.	.	.
[8d	time	.	.	.	.	.	.
4d]	_	2GM	.	voice	.	20.606	G:maj/4
4r	.	.	.	.	.	.	.
=8	=8	=8	=8	=8	=8	=8	=8
4r	.	2B-M	.	voice	.	22.155	B-:maj
16f	May-	.	.	.	.	.	.
16f	-be	.	.	.	.	.	.
16f	I'm	.	.	.	.	.	.
16d	a-	.	.	.	(a	.	.
8f	-fraid	2FM	.	voice	A)	23.704	F:maj/3
16f	of	.	.	.	.	.	.
16f	the	.	.	.	.	.	.
16e-	way	.	.	.	.	.	.
8d	I	.	.	.	.	.	.
[16d	love	.	.	.	.	.	.
=9	=9	=9	=9	=9	=9	=9	=9
16d]	_	1CM	.	voice	.	25.253	C:maj
8.c	you	.	.	.	.	.	.
4r	.	.	.	.	.	.	.
2r	.	.	.	.	.	.	.
=10	=10	=10	=10	=10	=10	=10	=10
4r	.	2B-M	newline	voice	.	28.352	B-:maj
16f	Maybe	.	.	.	.	.	.
16f	I'm	.	.	.	.	.	.
16f	a-	.	.	.	(a	.	.
16d	-ma-	.	.	.	A)	.	.
8.f	-zed	2FM	.	voice	.	29.897	F:maj/3
16d	the	.	.	.	.	.	.
8f	way	.	.	.	.	.	.
8a	you	.	.	.	.	.	.
=11	=11	=11	=11	=11	=11	=11	=11
8a	pulled	2CM	.	voice	.	31.442	C:maj
16g	me	.	.	.	.	.	.
[16g	out	.	.	.	.	.	.
16g]	_	.	.	.	.	.	.
16e	of	.	.	.	.	.	.
[8g	time	.	.	.	B	.	.
4g]	_	2GM	.	voice	.	32.988	G:maj
8r	.	.	.	.	.	.	.
8d	And	.	.	.	.	.	.
=12	=12	=12	=12	=12	=12	=12	=12
8a	hung	2B-M	.	voice	.	34.533	B-:maj
16g	me	.	.	.	.	.	.
[16g	on	.	.	.	.	.	.
16g]	_	.	.	.	.	.	.
16e	a	.	.	.	.	.	.
[8g	line	.	.	.	B	.	.
4g]	_	2FM	.	voice	.	36.079	F:maj/3
4r	.	.	.	.	.	.	.
=13	=13	=13	=13	=13	=13	=13	=13
16f	May-	2A-M	.	voice	.	37.624	A-:maj
16f	-be	.	.	.	.	.	.
16f	I'm	.	.	.	.	.	.
16d	a-	.	.	.	(a	.	.
8f	-mazed	.	.	.	A)	.	.
16f	at	.	.	.	.	.	.
16f	the	.	.	.	.	.	.
16e-	way	2E-M	.	voice	.	39.169	E-:maj/3
8e-	I	.	.	.	.	.	.
[16d	real-	.	.	.	.	.	.
8d]	_	.	.	.	.	.	.
16e-	-ly	.	.	.	.	.	.
[16d	need	.	.	.	.	.	.
=14	=14	=14	=14	=14	=14	=14	=14
16d]	_	1CM	.	voice	.	40.715	C:maj
8.c	you	.	.	.	.	.	.
4r	.	.	.	.	.	.	.
2r	.	.	.	.	.	.	.
=15	=15	=15	=15	=15	=15	=15	=15
*>Letter>C	*>Letter>C	*>Letter>C	*>Letter>C	*>Letter>C	*>Letter>C	*>Letter>C	*>Letter>C
*>Label>Chorus	*>Label>Chorus	*>Label>Chorus	*>Label>Chorus	*>Label>Chorus	*>Label>Chorus	*>Label>Chorus	*>Label>Chorus
*D:	*	*D:	*D:	*D:	*	*D:	*D:
4r	.	2DM	newline	voice	.	43.805	D:maj
16a	May-	.	.	.	.	.	.
16a	-be	.	.	.	.	.	.
16a	I'm	.	.	.	.	.	.
16f#	a	.	.	.	(a	.	.
4a	man	2DMM	.	voice	C)	45.302	D:maj9
16a	may-	.	.	.	.	.	.
16a	-be	.	.	.	.	.	.
16a	I'm	.	.	.	.	.	.
16a	a	.	.	.	.	.	.
=16	=16	=16	=16	=16	=16	=16	=16
8b	lone-	2DMm	.	voice	.	46.798	D:9
16a	-ly	.	.	.	d	.	.
[16b	man	.	.	.	C	.	.
16b]	_	.	.	.	.	.	.
16a	Who's	.	.	.	.	.	.
16b	in	.	.	.	.	.	.
16a	the	.	.	.	.	.	.
16b	mid-	4DMm	.	voice	.	48.294	D:7
16b	-dle	.	.	.	.	.	.
8a	of	.	.	.	.	.	.
8f	some-	4DMm	.	voice	.	49.042	D:7/3
8e	-thing	.	.	.	D	.	.
=17	=17	=17	=17	=17	=17	=17	=17
8d	_	1GM	.	voice	.	49.79	G:maj
8r	.	.	.	.	.	.	.
16B	That	.	.	.	.	.	.
16d	he	.	.	.	.	.	.
16d	does-	.	.	.	.	.	.
16B	-n't	.	.	.	.	.	.
8f	real-	.	.	.	.	.	.
16e	-ly	.	.	.	d	.	.
[16d	un-	.	.	.	.	.	.
16d]	_	.	.	.	.	.	.
16B	-der-	.	.	.	.	.	.
8f	-stand	.	.	.	C	.	.
=18	=18	=18	=18	=18	=18	=18	=18
8f#	_	1DM	.	voice	.	52.782	D:maj(b9)
8r	.	.	.	.	.	.	.
4r	.	.	.	.	.	.	.
2r	.	.	.	.	.	.	.
=19	=19	=19	=19	=19	=19	=19	=19
4r	.	2DM	newline	voice	.	55.774	D:maj
16a	May-	.	.	.	.	.	.
16a	-be	.	.	.	.	.	.
16a	I'm	.	.	.	.	.	.
16f#	a	.	.	.	(a	.	.
4a	man	2DMM	.	voice	C)	57.302	D:maj9
16a	may-	.	.	.	.	.	.
16a	-be	.	.	.	.	.	.
16a	you're	.	.	.	.	.	.
16a	the	.	.	.	.	.	.
=20	=20	=20	=20	=20	=20	=20	=20
8b	on-	2DMm	.	voice	.	58.83	D:9
16a	-ly	.	.	.	d	.	.
[16b	wo-	.	.	.	.	.	.
16b]	_	.	.	.	.	.	.
16a	-man	.	.	.	.	.	.
16b	Who	.	.	.	.	.	.
16a	could	.	.	.	.	.	.
16ff	e-	4DMm	.	voice	.	60.358	D:7
8ee	-ver	.	.	.	.	.	.
[16ee	help	.	.	.	.	.	.
8ee]	_	4DMm	.	voice	.	61.122	D:7/3
8dd	me	.	.	.	D	.	.
=21	=21	=21	=21	=21	=21	=21	=21
4r	.	1GM	.	voice	.	61.886	G:maj
16B	Ba-	.	.	.	.	.	.
16d	-by	.	.	.	.	.	.
16d	won't	.	.	.	.	.	.
16B	you	.	.	.	.	.	.
8f	help	.	.	.	.	.	.
16e	me	.	.	.	.	.	.
[16d	un-	.	.	.	.	.	.
8d]	_	.	.	.	.	.	.
16B	-der-	.	.	.	.	.	.
16d	-stand	.	.	.	C	.	.
=22	=22	=22	=22	=22	=22	=22	=22
4r	.	2DM	.	voice	.	64.942	D:maj/3
8r	.	.	.	.	.	.	.
[8dd	Oooh	.	.	.	.	.	.
12dd]	_	2FM	.	voice	.	66.469	F:maj6
12cc	_	.	.	.	.	.	.
12a	_	.	.	.	.	.	.
12g	_	.	.	.	.	.	.
12f	_	.	.	.	.	.	.
12g	_	.	.	.	.	.	.
=23	=23	=23	=23	=23	=23	=23	=23
8a	_	2Emm	.	voice	.	67.997	E:min7
8f#	_	.	.	.	.	.	.
8d	_	.	.	.	.	.	.
16A	_	.	.	.	.	.	.
16G	_	.	.	.	.	.	.
8r	.	2AM	.	voice	.	69.525	A:maj
8r	.	.	.	.	.	.	.
4r	.	.	.	.	.	.	.
=24	=24	=24	=24	=24	=24	=24	=24
*>Letter>B	*>Letter>B	*>Letter>B	*>Letter>B	*>Letter>B	*>Letter>B	*>Letter>B	*>Letter>B
*>Label>Solo	*>Label>Solo	*>Label>Solo	*>Label>Solo	*>Label>Solo	*>Label>Solo	*>Label>Solo	*>Label>Solo
*C:	*	*C:	*C:	*C:	*	*C:	*C:
1r	.	2B-M	newline	guitar	.	71.053	B-:maj
.	.	2FM	.	guitar	.	72.559	F:maj/3
=25	=25	=25	=25	=25	=25	=25	=25
1r	.	2CM	.	guitar	.	74.066	C:maj
.	.	2GM	.	guitar	.	75.572	G:maj
=26	=26	=26	=26	=26	=26	=26	=26
1r	.	2B-M	.	guitar	.	77.079	B-:maj
.	.	2FM	.	guitar	.	78.585	F:maj/3
=27	=27	=27	=27	=27	=27	=27	=27
1r	.	1CM	.	guitar	.	80.091	C:maj
=28	=28	=28	=28	=28	=28	=28	=28
1r	.	2B-M	newline	guitar	.	83.104	B-:maj
.	.	2FM	.	guitar	.	84.623	F:maj/3
=29	=29	=29	=29	=29	=29	=29	=29
1r	.	2CM	.	guitar	.	86.141	C:maj
.	.	2GM	.	guitar	.	87.66	G:maj
=30	=30	=30	=30	=30	=30	=30	=30
1r	.	2B-M	.	guitar	.	89.179	B-:maj
.	.	2FM	.	guitar	.	90.697	F:maj/3
=31	=31	=31	=31	=31	=31	=31	=31
1r	.	2A-M	.	guitar	.	92.216	A-:maj
.	.	2E-M	.	guitar	.	93.734	E-:maj/3
=32	=32	=32	=32	=32	=32	=32	=32
1r	.	1CM	.	guitar	.	95.253	C:maj
=33	=33	=33	=33	=33	=33	=33	=33
*>Letter>C	*>Letter>C	*>Letter>C	*>Letter>C	*>Letter>C	*>Letter>C	*>Letter>C	*>Letter>C
*>Label>Chorus	*>Label>Chorus	*>Label>Chorus	*>Label>Chorus	*>Label>Chorus	*>Label>Chorus	*>Label>Chorus	*>Label>Chorus
*D:	*	*D:	*D:	*D:	*	*D:	*D:
4r	.	2DM	newline	voice	.	98.29	D:maj
16a	May-	.	.	.	.	.	.
16a	-be	.	.	.	.	.	.
16a	I'm	.	.	.	.	.	.
16f#	a	.	.	.	(a	.	.
4a	man	2DMM	.	voice	C)	99.793	D:maj9
16a	may-	.	.	.	.	.	.
16a	-be	.	.	.	.	.	.
16a	I'm	.	.	.	.	.	.
16a	a	.	.	.	.	.	.
=34	=34	=34	=34	=34	=34	=34	=34
8b	lone-	2DMm	.	voice	.	101.296	D:9
16a	-ly	.	.	.	d	.	.
[16b	man	.	.	.	.	.	.
16b]	_	.	.	.	.	.	.
16a	Who's	.	.	.	.	.	.
16b	in	.	.	.	.	.	.
16a	the	.	.	.	.	.	.
16b	mid-	4DMm	.	voice	.	102.798	D:7
16b	-dle	.	.	.	.	.	.
8a	of	.	.	.	.	.	.
8f	some-	4DMm	.	voice	.	103.55	D:7/3
8e	-thing	.	.	.	D	.	.
=35	=35	=35	=35	=35	=35	=35	=35
8d	_	1GM	.	voice	.	104.301	G:maj
8r	.	.	.	.	.	.	.
16B	That	.	.	.	.	.	.
16d	he	.	.	.	.	.	.
16d	does-	.	.	.	.	.	.
16B	-n't	.	.	.	.	.	.
8f	real-	.	.	.	.	.	.
16e	-ly	.	.	.	.	.	.
[16d	un-	.	.	.	.	.	.
16d]	_	.	.	.	.	.	.
16B	-der-	.	.	.	.	.	.
8f	-stand	.	.	.	C	.	.
=36	=36	=36	=36	=36	=36	=36	=36
8f#	_	1DM	.	voice	.	107.307	D:maj(b9)
8r	.	.	.	.	.	.	.
4r	.	.	.	.	.	.	.
2r	.	.	.	.	.	.	.
=37	=37	=37	=37	=37	=37	=37	=37
4r	.	2DM	newline	voice	.	110.312	D:maj
16a	May-	.	.	.	.	.	.
16a	-be	.	.	.	.	.	.
16a	I'm	.	.	.	.	.	.
16f#	a	.	.	.	(a	.	.
4a	man	2DMM	.	voice	C)	111.834	D:maj9
16a	may-	.	.	.	.	.	.
16a	-be	.	.	.	.	.	.
16a	you're	.	.	.	.	.	.
16a	the	.	.	.	.	.	.
=38	=38	=38	=38	=38	=38	=38	=38
8b	on-	2DMm	.	voice	.	113.355	D:9
16a	-ly	.	.	.	d	.	.
[16b	wo-	.	.	.	.	.	.
16b]	_	.	.	.	.	.	.
16a	-man	.	.	.	.	.	.
16b	Who	.	.	.	.	.	.
16a	could	.	.	.	.	.	.
16ff	e-	4DMm	.	voice	.	114.877	D:7
8ee	-ver	.	.	.	.	.	.
[16ee	help	.	.	.	.	.	.
8ee]	_	4DMm	.	voice	.	115.637	D:7/3
8dd	me	.	.	.	D	.	.
=39	=39	=39	=39	=39	=39	=39	=39
4r	.	1GM	.	voice	.	116.398	G:maj
16B	Ba-	.	.	.	.	.	.
16d	-by	.	.	.	.	.	.
16d	won't	.	.	.	.	.	.
16B	you	.	.	.	.	.	.
8f	help	.	.	.	.	.	.
16e	me	.	.	.	.	.	.
[16d	un-	.	.	.	.	.	.
8d]	_	.	.	.	.	.	.
16e	-der-	.	.	.	.	.	.
16d	-stand	.	.	.	C	.	.
=40	=40	=40	=40	=40	=40	=40	=40
4r	.	2DM	.	voice	.	119.441	D:maj/3
8r	.	.	.	.	.	.	.
[8dd	Oooh	.	.	.	.	.	.
12dd]	_	2FM	.	voice	.	120.963	F:maj6
12cc	_	.	.	.	.	.	.
12a	_	.	.	.	.	.	.
12g	_	.	.	.	.	.	.
12f	_	.	.	.	.	.	.
12g	_	.	.	.	.	.	.
=41	=41	=41	=41	=41	=41	=41	=41
8a	_	2Emm	.	voice	.	122.484	E:min7
8f#	_	.	.	.	.	.	.
8d	_	.	.	.	.	.	.
16A	_	.	.	.	.	.	.
16G	_	.	.	.	.	.	.
8r	.	2AM	.	voice	.	124.006	A:maj
8r	.	.	.	.	.	.	.
4r	.	.	.	.	.	.	.
=42	=42	=42	=42	=42	=42	=42	=42
*>Letter>B	*>Letter>B	*>Letter>B	*>Letter>B	*>Letter>B	*>Letter>B	*>Letter>B	*>Letter>B
*>Label>Verse	*>Label>Verse	*>Label>Verse	*>Label>Verse	*>Label>Verse	*>Label>Verse	*>Label>Verse	*>Label>Verse
*C:	*	*C:	*C:	*C:	*	*C:	*C:
4r	.	2B-M	newline	voice	.	125.527	B-:maj
16f	May-	.	.	.	.	.	.
16f	-be	.	.	.	.	.	.
16f	I'm	.	.	.	.	.	.
16d	a-	.	.	.	(a	.	.
8.f	-mazed	2FM	.	voice	A)	127.025	F:maj/3
16f	the	.	.	.	.	.	.
8g	way	.	.	.	.	.	.
8g	you're	.	.	.	.	.	.
=43	=43	=43	=43	=43	=43	=43	=43
8g	with	2CM	.	voice	.	128.522	C:maj
16g	me	.	.	.	.	.	.
[16e	all	.	.	.	.	.	.
16e]	_	.	.	.	.	.	.
16e	the	.	.	.	.	.	.
[8d	time	.	.	.	.	.	.
4d]	_	2GM	.	voice	.	130.02	G:maj
4r	.	.	.	.	.	.	.
=44	=44	=44	=44	=44	=44	=44	=44
4r	.	2B-M	.	voice	.	131.518	B-:maj
16f	May-	.	.	.	.	.	.
16f	-be	.	.	.	.	.	.
16f	I'm	.	.	.	.	.	.
16d	a-	.	.	.	(a	.	.
8f	-fraid	2FM	.	voice	A)	133.016	F:maj/3
16f	of	.	.	.	.	.	.
16f	the	.	.	.	.	.	.
16e-	way	.	.	.	.	.	.
8d	I	.	.	.	.	.	.
[16d	leave	.	.	.	.	.	.
=45	=45	=45	=45	=45	=45	=45	=45
16d]	_	1CM	.	voice	.	134.513	C:maj
8.c	you	.	.	.	.	.	.
4r	.	.	.	.	.	.	.
2r	.	.	.	.	.	.	.
=46	=46	=46	=46	=46	=46	=46	=46
4r	.	2B-M	newline	voice	.	137.509	B-:maj
16f	May-	.	.	.	.	.	.
16f	-be	.	.	.	.	.	.
16f	I'm	.	.	.	.	.	.
16d	a-	.	.	.	(a	.	.
8.f	-mazed	2FM	.	voice	A)	139.032	F:maj/3
16d	the	.	.	.	.	.	.
8f	way	.	.	.	.	.	.
8a	you	.	.	.	.	.	.
=47	=47	=47	=47	=47	=47	=47	=47
8a	help	2CM	.	voice	.	140.555	C:maj
16g	me	.	.	.	d	.	.
[16g	sing	.	.	.	D	.	.
16g]	_	.	.	.	.	.	.
16e	my	.	.	.	.	.	.
[8g	song	.	.	.	E	.	.
4g]	_	2GM	.	voice	.	142.078	G:maj
4r	.	.	.	.	.	.	.
=48	=48	=48	=48	=48	=48	=48	=48
8a	right	2B-M	.	voice	.	143.601	B-:maj
16g	me	.	.	.	d	.	.
[16g	when	.	.	.	.	.	.
16g]	_	.	.	.	.	.	.
16e	I'm	.	.	.	.	.	.
[8g	wrong	.	.	.	E	.	.
4g]	_	2FM	.	voice	.	145.125	F:maj/3
4r	.	.	.	.	.	.	.
=49	=49	=49	=49	=49	=49	=49	=49
16f	May-	2A-M	.	voice	.	146.648	A-:maj
16f	-be	.	.	.	.	.	.
16f	I'm	.	.	.	.	.	.
16d	a-	.	.	.	(a	.	.
8f	-mazed	.	.	.	A)	.	.
16f	at	.	.	.	.	.	.
16f	the	.	.	.	.	.	.
16e-	way	2E-M	.	voice	.	148.171	E-:maj/3
8e-	I	.	.	.	.	.	.
[16d	real-	.	.	.	(D	.	.
8d]	_	.	.	.	.	.	.
16e-	-ly	.	.	.	d)	.	.
[16d	need	.	.	.	.	.	.
=50	=50	=50	=50	=50	=50	=50	=50
16d]	_	1CM	.	voice	.	149.694	C:maj
8.c	you	.	.	.	.	.	.
4r	.	.	.	.	.	.	.
2r	.	.	.	.	.	.	.
=51	=51	=51	=51	=51	=51	=51	=51
*>Letter>C	*>Letter>C	*>Letter>C	*>Letter>C	*>Letter>C	*>Letter>C	*>Letter>C	*>Letter>C
*>Label>Solo	*>Label>Solo	*>Label>Solo	*>Label>Solo	*>Label>Solo	*>Label>Solo	*>Label>Solo	*>Label>Solo
*D:	*	*D:	*D:	*D:	*	*D:	*D:
4r	.	2DM	newline	organ	.	152.741	D:maj
4a	Oh	.	.	.	.	.	.
4r	.	2DMM	.	organ	.	154.212	D:maj9
4a	Oh	.	.	.	.	.	.
=52	=52	=52	=52	=52	=52	=52	=52
4r	.	1DMm	.	organ	.	155.684	D:7
8d	Oh	.	.	.	.	.	.
[8a	_	.	.	.	.	.	.
8a]	_	.	.	.	.	.	.
8f	oh	.	.	.	.	.	.
8e	oh	.	.	.	.	.	.
8d	_	.	.	.	.	.	.
=53	=53	=53	=53	=53	=53	=53	=53
16e	_	1GM	.	organ	.	158.627	G:maj
8.d	_	.	.	.	.	.	.
4r	.	.	.	.	.	.	.
4r	.	.	.	.	.	.	.
16B	yeah	.	.	.	.	.	.
8d	_	.	.	.	.	.	.
[16f#	_	.	.	.	.	.	.
=54	=54	=54	=54	=54	=54	=54	=54
4f#]	_	1DM	.	organ	.	161.57	D:maj(b9)
4r	.	.	.	.	.	.	.
2r	.	.	.	.	.	.	.
=55	=55	=55	=55	=55	=55	=55	=55
4r	.	2DM	newline	organ	.	164.513	D:maj
4a	oh	.	.	.	.	.	.
4r	.	2DMM	.	organ	.	165.861	D:maj9
4a	oh	.	.	.	.	.	.
=56	=56	=56	=56	=56	=56	=56	=56
4r	.	1DMm	.	organ	.	167.21	D:7
4b	Oh	.	.	.	.	.	.
12g	oh	.	.	.	.	.	.
12f#	oh	.	.	.	.	.	.
12e	oh	.	.	.	.	.	.
8d	oh	.	.	.	.	.	.
8e	_	.	.	.	.	.	.
=57	=57	=57	=57	=57	=57	=57	=57
8f#	_	1GM	.	organ	.	169.906	G:maj
8g	_	.	.	.	.	.	.
8b	_	.	.	.	.	.	.
8r	.	.	.	.	.	.	.
8r	.	.	.	.	.	.	.
[8e	yeah	.	.	.	.	.	.
8e]	_	.	.	.	.	.	.
16d	_	.	.	.	.	.	.
16e	_	.	.	.	.	.	.
=58	=58	=58	=58	=58	=58	=58	=58
8d	_	2DM	.	organ	.	172.603	D:maj/3
[4.dd	_	.	.	.	.	.	.
12dd]	_	2FM	.	organ	.	173.952	F:maj6
12cc	Oooh	.	.	.	.	.	.
12a	_	.	.	.	.	.	.
12g	_	.	.	.	.	.	.
12f	_	.	.	.	.	.	.
12g	_	.	.	.	.	.	.
=59	=59	=59	=59	=59	=59	=59	=59
8a	_	2Emm	.	organ	.	175.3	E:min7
8f#	_	.	.	.	.	.	.
8d	_	.	.	.	.	.	.
8r	.	.	.	.	.	.	.
2r	.	2AM	.	organ	.	176.649	A:maj
=60	=60	=60	=60	=60	=60	=60	=60
1r	.	1AM	.	organ	.	177.997	A:maj
r;	.	1r;	.	r	.	180.694	N.C.
=61	=61	=61	=61	=61	=61	=61	=61
*>Letter>B	*>Letter>B	*>Letter>B	*>Letter>B	*>Letter>B	*>Letter>B	*>Letter>B	*>Letter>B
*>Label>Solo	*>Label>Solo	*>Label>Solo	*>Label>Solo	*>Label>Solo	*>Label>Solo	*>Label>Solo	*>Label>Solo
*C:	*	*C:	*C:	*C:	*	*C:	*C:
1r	.	2B-M	newline	guitar	.	183.391	B-:maj
.	.	2FM	.	guitar	.	184.921	F:maj/3
=62	=62	=62	=62	=62	=62	=62	=62
1r	.	2CM	.	guitar	.	186.45	C:maj
.	.	2GM	.	guitar	.	187.98	G:maj
=63	=63	=63	=63	=63	=63	=63	=63
1r	.	2B-M	.	guitar	.	189.51	B-:maj
.	.	2FM	.	guitar	.	191.039	F:maj/3
=64	=64	=64	=64	=64	=64	=64	=64
1r	.	1CM	.	guitar	.	192.569	C:maj
=65	=65	=65	=65	=65	=65	=65	=65
1r	.	2B-M	newline	guitar	.	195.628	B-:maj
.	.	2FM	.	guitar	.	197.149	F:maj/3
=66	=66	=66	=66	=66	=66	=66	=66
1r	.	2CM	.	guitar	.	198.67	C:maj
.	.	2GM	.	guitar	.	200.191	G:maj
=67	=67	=67	=67	=67	=67	=67	=67
1r	.	2B-M	.	guitar	.	201.712	B-:maj
.	.	2FM	.	guitar	.	203.233	F:maj/3
=68	=68	=68	=68	=68	=68	=68	=68
1r	.	2A-M	.	guitar	.	204.754	A-:maj
.	.	2E-M	.	guitar	.	206.274	E-:maj/3
=69	=69	=69	=69	=69	=69	=69	=69
1r	.	1CM	.	guitar	.	207.795	C:maj
=70	=70	=70	=70	=70	=70	=70	=70
*>Letter>C	*>Letter>C	*>Letter>C	*>Letter>C	*>Letter>C	*>Letter>C	*>Letter>C	*>Letter>C
*>Label>Fadeout	*>Label>Fadeout	*>Label>Fadeout	*>Label>Fadeout	*>Label>Fadeout	*>Label>Fadeout	*>Label>Fadeout	*>Label>Fadeout
*D:	*	*D:	*D:	*D:	*	*D:	*D:
1r	.	2DM	newline	guitar	.	210.837	D:maj
.	.	2DMM	.	guitar	.	212.358	D:maj9
=71	=71	=71	=71	=71	=71	=71	=71
1r	.	1DMm	.	guitar	.	213.879	D:7
=72	=72	=72	=72	=72	=72	=72	=72
1r	.	1GM	.	guitar	.	216.922	G:maj
=73	=73	=73	=73	=73	=73	=73	=73
1r	.	1DM	.	guitar	.	219.964	D:maj(b9)
=74	=74	=74	=74	=74	=74	=74	=74
1r	.	2DM	newline	guitar	.	223.006	D:maj
.	.	2DMM	.	guitar	.	223.463	D:maj9
=75	=75	=75	=75	=75	=75	=75	=75
1r	.	1DMm	.	guitar	.	223.919	D:7
=76	=76	=76	=76	=76	=76	=76	=76
1r	.	1GM	.	guitar	.	224.832	G:maj
=77	=77	=77	=77	=77	=77	=77	=77
1r	.	2DM	.	guitar	.	225.745	D:maj/3
.	.	2FM	.	guitar	.	226.202	F:maj6
=78	=78	=78	=78	=78	=78	=78	=78
1r	.	2Emm	.	guitar	.	226.658	E:min7
.	.	2AM	.	guitar	.	227.115	A:maj
=79	=79	=79	=79	=79	=79	=79	=79
1r	.	1AM	.	guitar	.	227.571	A:maj
r;	.	1r;	.	r	.	228.484	N.C.
r;	.	1r;	.	r	.	233.404	N.C.
*-	*-	*-	*-	*-	*-	*-	*-
!!!BillboardChartDate: 1977/03/05
!!!BillboardPeak: 10
!!!BillboardWeeksOnChart: 13
!!!COC: Paul McCartney
!!!ENC: Nathaniel Condit-Schultz
!!!EST: Awating manual error checking and editing.
!!!OTL: Maybe I'm Amazed
!!!RDF**chordsym: original McGill chord annotation + (implied pitch class set, with bass pitch in first position)
!!!RDF**harmony: **recip + pitch class of root + harmonic quality
!!!RDF**leadinstrument: original McGill primary instrumentation annotation
!!!RDF**phrase: newline = linebreak in original McGill transcription
!!!RDF**timestamp: McGill audio timestamp in seconds
!!!RDT: 2017/01/12/
!!!SampleActualRank: 20
!!!SampleID#: 0206
!!!SampleTargetRank: 20
